X:1
T:Portsea, 87.87
T:William Boyce, 1775
T:Portsea, 87.87
T:Public Domain
C:William Boyce, 1775
Z:Public Domain
%%score ( 1 2 ) ( 3 4 )
L:1/8
M:4/4
K:Eb
V:1 treble 
V:2 treble 
V:3 bass 
V:4 bass 
V:1
 [Ec]2 (BA) [EG]2 [EA]2 | [DF]2 [DG]2 [CE]2 [=B,D]2 | C2 [=B,D]2 (EF) [CG]2 | [Ec]2 [Fd]2 [D=B]4 | %4
 [Gc]2 [Gd]2 [Ge]2 (dc) | [FB]2 [DA]2 [EG]2 [DF]2 | [CE]2 [DF]2 [EG]2 [Ec]2 | ([EG][CE])(EC) C4 |] %8
V:2
 x2 F2 x4 | x8 | C2 C2 x4 | x8 | x6 F2 | x8 | x8 | x2 F2 C4 |] %8
V:3
 [C,G,]2 [D,B,]2 [E,B,]2 [C,C]2 | [D,A,]2 [=B,,G,]2 [C,G,]2 [G,,G,]2 | %2
 [A,,E,]2 [G,,G,]2 [C,G,]2 [E,G,]2 | A,2 [F,A,]2 G,4 | [E,C]2 [D,=B,]2 [C,C]2 [F,A,]2 | %5
 [D,B,]2 [B,,B,]2 [E,B,]2 [B,,A,]2 | [C,G,]2 [B,,B,]2 [E,B,]2 [A,,A,]2 | (A,C)(G,F,) [C,E,]4 |] %8
V:4
 x8 | x8 | x8 | A,2 G,4 x2 | x8 | x8 | x8 | F,,2 G,,2 x4 |] %8

